www/assets/icons/library_add_check.svg

<svg xmlns="http://www.w3.org/2000/svg" width="24" height="24" viewBox="0 0 24 24" fill='currentColor'><path d="M20 2H8c-1.1 0-2 .9-2 2v12c0 1.1.9 2 2 2h12c1.1 0 2-.9 2-2V4c0-1.1-.9-2-2-2m-7.53 12L9 10.5l1.4-1.41 2.07 2.08L17.6 6 19 7.41zM4 6H2v14c0 1.1.9 2 2 2h14v-2H4z"/></svg>

<svg width="24" height="24" viewBox="0 0 24 24" xmlns="http://www.w3.org/2000/svg" fill='currentColor'><path d="M20 2H8C6.9 2 6 2.9 6 4V16C6 17.1 6.9 18 8 18H20C21.1 18 22 17.1 22 16V4C22 2.9 21.1 2 20 2ZM12.47 14L9 10.5L10.4 9.09L12.47 11.17L17.6 6L19 7.41L12.47 14ZM4 6H2V20C2 21.1 2.9 22 4 22H18V20H4V6Z"/></svg>
